X:1
T:Have Compassion, Lord, on Me!
T:Have Compassion, Lord, on Me!
T:John Robson Sweney (1837-1899)
T:Frances Jane (Fanny) Crosby (1820-1915)
T:Public Domain Courtesy of the Cyber Hymnal™
T:Public Domain Courtesy of the Cyber Hymnal™
C:John Robson Sweney (1837-1899)
Z:Public Domain
Z:Courtesy of the Cyber Hymnal™
%%score ( 1 2 ) ( 3 4 )
L:1/8
Q:1/4=113
M:9/8
K:Db
V:1 treble 
V:2 treble 
V:3 bass 
V:4 bass 
V:1
 [DA]2 [DF] | [DB]3 [DA]3 [DF]2 D | [DF]3 [CE]3 [CE]2 [DF] | [EG]3 [CE]3 [Gc]2 [GB] | %4
w: 1.~O my|Sav- ior, I am|wear- y! Let my|cry to Thee a-|
w: 2.~O my|Sav- ior, tho’ un-|wor- thy, I have|no- where else to|
w: 3.~O my|Sav- ior, by Thy|Spir- it Thou hast|called me o’er and|
w: 4.~O my|Sav- ior, do not|leave me Here to|per- ish at Thy|
 [FA]6 [DA]2 [DF] | [DB]3 [DA]3 [DF]2 D | [DF]3 [CE]3 [CE]2 [DF] | [CG]3 [A,C]3 [A,F]2 [A,E] | %8
w: scend While in|hum- ble sup- pli-|ca- tion Now be-|fore Thy throne I|
w: go; Thou canst|par- don my trans-|gress- ions, Thou canst|wash me white as|
w: o’er; Now re-|pent- ant I am|com- ing; Lord, my|wan- d’ring soul re-|
w: throne; In Thy|ten- der, lov- ing|mer- cy Cleanse and|make me all Thine|
 [A,D]6 ||"^Refrain" (AF)d | c3 G3 (GE)c | B3 A3 [DF]2 [DA] | [CA]3- [CA]2 [EG] [DF]2 [CE] | %13
w: bend!|||||
w: snow!|Weak * and|help- less, yet * be-|liev- ing, Cast- ing|all * my care on|
w: store!|||||
w: own!|||||
 [DF]6 (AF)d | c3 G3 (GE)c | B3 A3 D2 F | B2 A F2 D [A,F]2 [A,E] | [A,D]6 |] %18
w: |||||
w: Thee, I * am|hop- ing, trust- * ing,|pray- ing; Have com-|pass- ion, Lord, on me! *||
w: |||||
w: |||||
V:2
 x3 | x8 D | x9 | x9 | x9 | x8 D | x9 | x9 | x6 || x3 | (G2 G) (E2 E) x3 | (=E2 E) (F2 F) x3 | x9 | %13
 x9 | (G2 G) (E2 E) x3 | (=E2 E) (F2 F) D2 F | (B2 A) (F2 D) x3 | x6 |] %18
V:3
 [D,F,]2 [D,A,] | [D,G,]3 [D,F,]3 [D,A,]2 [F,A,] | A,3 [A,,A,]3 [A,,A,]2 [A,,A,] | %3
w: ~ ~|~ ~ ~ ~|~ ~ ~ ~|
 [A,,A,]3 [A,,A,]3 [A,,A,]2 [A,,C] | [D,D]6 [D,F,]2 [D,A,] | [D,G,]3 [D,F,]3 [D,A,]2 [F,A,] | %6
w: ~ ~ ~ ~|~ ~ ~|~ ~ ~ ~|
 A,3 [A,,A,]3 [A,,A,]2 [A,,A,] | [A,,E,]3 [A,,G,]3 [A,,G,]2 [A,,G,] | [D,F,]6 || z3 | %10
w: ~ ~ ~ ~|~ ~ ~ ~|~||
 [A,E]2 [A,E] [A,C]2 [A,C] z3 | [D,D]2 [D,D] [D,D]2 [D,D] [D,A,]2 [D,F,] | %12
w: Weak and help- less,|yet be- lieving ~ ~ ~|
 [A,,E,]3- [A,,E,]2 [A,,A,] [A,,A,]2 [A,,A,] | [D,A,]6 z3 | [A,E]2 [A,E] [A,C]2 [A,C] z3 | %15
w: ~ * ~ ~ ~|~|I am hop- ing,|
 [D,D]2 [D,D] [D,D]2 [D,D] D,2 F, | B,2 A, F,2 D, [A,,G,]2 [A,,G,] | [D,F,]6 |] %18
w: trust- ing, pray- ing; * *|||
V:4
 x3 | x9 | A,3 x6 | x9 | x9 | x9 | A,3 x6 | x9 | x6 || x3 | x9 | x9 | x9 | x9 | x9 | x6 D,2 F, | %16
 (B,2 A,) (F,2 D,) x3 | x6 |] %18

